logo/eclipse.svg

<?xml version="1.0" encoding="UTF-8"?>
<svg width="512px" height="121px" viewBox="0 0 512 121" version="1.1" xmlns="http://www.w3.org/2000/svg" xmlns:xlink="http://www.w3.org/1999/xlink" preserveAspectRatio="xMidYMid">
    <defs>
        <linearGradient x1="49.9996994%" y1="1089.3962%" x2="49.9996994%" y2="-159.499661%" id="linearGradient-1">
            <stop stop-color="#473788" offset="30.33%"></stop>
            <stop stop-color="#2C2255" offset="87.2%"></stop>
        </linearGradient>
        <linearGradient x1="49.9989479%" y1="896.536635%" x2="49.9989479%" y2="-352.359227%" id="linearGradient-2">
            <stop stop-color="#473788" offset="30.33%"></stop>
            <stop stop-color="#2C2255" offset="87.2%"></stop>
        </linearGradient>
        <linearGradient x1="49.9988435%" y1="215.169856%" x2="49.9988435%" y2="-166.715419%" id="linearGradient-3">
            <stop stop-color="#473788" offset="30.33%"></stop>
            <stop stop-color="#2C2255" offset="86.31%"></stop>
        </linearGradient>
    </defs>
    <g>
        <path d="M116.899404,75.4633532 C114.46577,83.7479489 109.952545,91.175217 103.348834,97.7353532 C95.0380936,106.10274 85.338417,111.111626 74.2596085,112.783796 C71.4926298,113.201021 68.6439489,113.419983 65.7037617,113.419983 C50.9952,113.419983 38.4174298,108.196494 27.9573787,97.7353532 C21.3961532,91.1730383 16.9145191,83.7479489 14.4994043,75.4633532 L14.4994043,75.4633532 Z M118.95503,63.0762213 C118.861656,64.9558371 118.67224,66.7946352 118.399131,68.5994757 L118.25566,69.4990979 L13.1529532,69.4990979 C12.8532231,67.705386 12.6367291,65.8788599 12.5130755,64.0126595 L12.4590298,63.0762213 L118.95503,63.0762213 Z M118.253481,50.6890894 C118.555078,52.483735 118.77264,54.3103944 118.897246,56.1759279 L118.951762,57.111966 L12.4590298,57.111966 C12.5514699,55.2332839 12.7391514,53.3946192 13.010412,51.5891117 L13.1529532,50.6890894 L118.253481,50.6890894 Z" fill="#2C2255"></path>
        <path d="M116.901583,44.7237447 C114.470128,36.4162723 109.955813,28.9563234 103.348834,22.3482553 C95.0598809,14.0593021 85.3874383,9.08636596 74.3445787,7.41310638 C71.5514553,6.98934468 68.6744511,6.76711489 65.7037617,6.76711489 C50.9952,6.76711489 38.4163404,11.9622809 27.9573787,22.3482553 C21.3939745,28.9563234 16.9101617,36.4162723 14.4961362,44.7237447" fill="#2C2255"></path>
        <path d="M9.29225532,60.0957277 C9.29225532,31.9640511 30.4204255,8.58961702 57.9061106,4.47836596 C57.2241702,4.45331064 56.5389617,4.4260766 55.8504851,4.4260766 C25.0062979,4.4260766 0,29.3506723 0,60.0957277 C0,90.8418723 25.0052085,115.765379 55.8504851,115.765379 C56.5411404,115.765379 57.2263489,115.739234 57.9104681,115.714179 C30.4204255,111.602928 9.29225532,88.2284936 9.29225532,60.0957277 Z" fill="#F7941E"></path>
        <rect fill="#F7941E" x="304.578996" y="0" width="11.1082213" height="14.0658383"></rect>
        <path d="M362.016681,25.2230809 C370.228289,25.2230809 376.89954,28.4824511 382.029345,35.0044596 C387.161328,41.5253787 389.725685,50.097566 389.725685,60.7210213 C389.725685,71.348834 387.161328,79.9210213 382.029345,86.4397617 C376.89954,92.9585021 370.228289,96.2211404 362.016681,96.2211404 C357.066621,96.2211404 352.810485,95.2450723 349.248272,93.2918468 C345.68606,91.3418894 342.736068,88.3526809 340.402655,84.3264 L340.402655,120.188187 L329.234519,120.188187 L329.234519,26.852766 L340.402655,26.852766 L340.402655,37.1167319 C342.738247,33.0937191 345.688238,30.1034213 349.248272,28.1512851 C352.810485,26.202417 357.066621,25.2230809 362.016681,25.2230809 Z M182.313396,25.2274383 C191.410655,25.2274383 198.603711,28.1556426 203.89583,34.0120511 C209.190128,39.8630128 211.836187,47.8229787 211.836187,57.8843234 L211.836187,63.3158809 L160.761464,63.3158809 C161.242962,70.9664681 163.548051,76.7901957 167.673464,80.7936 C171.799966,84.8002723 177.54526,86.8003404 184.909345,86.8003404 C189.175285,86.8003404 193.310502,86.2785362 197.317174,85.2338383 C201.321668,84.1891404 205.293481,82.6171915 209.240238,80.5234383 L209.240238,91.0303319 C205.255353,92.7210213 201.170247,94.0086468 196.98383,94.8953872 C192.797413,95.7799489 188.55217,96.2233191 184.245923,96.2233191 C173.460153,96.2233191 164.917379,93.0848681 158.618689,86.8046979 C152.32,80.525617 149.170655,72.0373106 149.170655,61.3310638 C149.170655,50.2631489 152.158774,41.4774468 158.135013,34.9783149 C164.111251,28.479183 172.172528,25.2274383 182.313396,25.2274383 Z M482.326877,25.2274383 C491.421957,25.2274383 498.617191,28.1556426 503.909311,34.0120511 C509.20034,39.8630128 511.847489,47.8229787 511.847489,57.8843234 L511.847489,63.3158809 L460.772766,63.3158809 C461.255353,70.9664681 463.559353,76.7901957 467.686945,80.7936 C471.810179,84.8002723 477.55874,86.8003404 484.920647,86.8003404 C489.188766,86.8003404 493.322894,86.2785362 497.328477,85.2338383 C501.33406,84.1891404 505.305872,82.6171915 509.25263,80.5234383 L509.25263,91.0303319 C505.266655,92.7210213 501.181549,94.0086468 496.995132,94.8953872 C492.810894,95.7799489 488.564562,96.2233191 484.260494,96.2233191 C473.471455,96.2233191 464.92977,93.0848681 458.63326,86.8046979 C452.332391,80.525617 449.183047,72.0373106 449.183047,61.3310638 C449.183047,50.2631489 452.172255,41.4774468 458.147404,34.9783149 C464.123643,28.4780936 472.187098,25.2274383 482.326877,25.2274383 Z M249.952953,25.2230809 C253.375728,25.2230809 256.715711,25.5782128 259.97617,26.2808511 C263.23663,26.9845787 266.395779,28.0423489 269.455796,29.4508936 L269.455796,39.8336 C266.315166,38.1036936 263.166911,36.8062638 260.007762,35.9402213 C256.846434,35.0741787 253.657872,34.6427915 250.437719,34.6427915 C243.232681,34.6427915 237.638809,36.9260936 233.656102,41.4937872 C229.671217,46.0614809 227.678774,52.4723745 227.678774,60.7210213 C227.678774,68.9718468 229.671217,75.3827404 233.656102,79.950434 C237.638809,84.5203064 243.232681,86.8014298 250.437719,86.8014298 C253.657872,86.8014298 256.846434,86.3700426 260.007762,85.5072681 C263.164732,84.6412255 266.315166,83.3437957 269.455796,81.6117106 L269.455796,91.8734979 C266.355472,93.3223489 263.145123,94.4095319 259.825838,95.1328681 C256.503285,95.858383 252.974843,96.2200511 249.229617,96.2200511 C239.046264,96.2200511 230.957753,93.0195064 224.961906,86.6205957 C218.963881,80.2227745 215.965957,71.589583 215.965957,60.7210213 C215.965957,49.6955915 218.993294,41.0210043 225.051234,34.701617 C231.108085,28.3844085 239.4112,25.2230809 249.952953,25.2230809 Z M420.357447,25.2219915 C424.463251,25.2219915 428.326128,25.5237447 431.949345,26.1261617 C435.573651,26.7340255 438.913634,27.6381957 441.973651,28.8462979 L441.973651,39.3510128 C438.831932,37.7420255 435.573651,36.5339234 432.192272,35.7277957 C428.810894,34.9238468 425.309685,34.5218723 421.687557,34.5218723 C416.173209,34.5218723 412.039081,35.3661277 409.279728,37.0579064 C406.522553,38.7475064 405.146689,41.2835404 405.146689,44.6638298 C405.146689,47.2379915 406.129294,49.2620255 408.103217,50.7315745 C410.074962,52.200034 414.03806,53.5976851 419.996868,54.9277957 L423.79874,55.7720511 C431.686809,57.4638298 437.292664,59.8462638 440.613038,62.9269787 C443.934502,66.0055149 445.594689,70.3019574 445.594689,75.8141277 C445.594689,82.0932085 443.108766,87.0628766 438.13583,90.7264 C433.166162,94.3866553 426.334774,96.2200511 417.641668,96.2200511 C414.02063,96.2200511 410.245991,95.8670979 406.319932,95.1644596 C402.394962,94.4607319 398.263013,93.4029617 393.913191,91.994417 L393.913191,80.5223489 C398.021174,82.6585872 402.063796,84.2566809 406.048681,85.3242553 C410.033566,86.3907404 413.977055,86.9223489 417.881328,86.9223489 C423.114621,86.9223489 427.136545,86.0290723 429.955813,84.2370723 C432.773991,82.443983 434.180357,79.9199319 434.180357,76.6605617 C434.180357,73.6419404 433.165072,71.3281362 431.134502,69.7158809 C429.100664,68.1068936 424.642996,66.5567319 417.759319,65.0664851 L413.897532,64.1623149 C407.016034,62.7134638 402.044187,60.4900766 398.986349,57.4921532 C395.927421,54.4942298 394.397957,50.3797106 394.397957,45.1453277 C394.397957,38.785634 396.651847,33.8769702 401.159626,30.4160681 C405.667404,26.9540766 412.067404,25.2219915 420.357447,25.2219915 Z M290.6112,0.531608511 L290.6112,94.4694468 L279.5008,94.4694468 L279.5008,0.531608511 L290.6112,0.531608511 Z M315.687217,26.852766 L315.687217,94.4694468 L304.578996,94.4694468 L304.578996,26.852766 L315.687217,26.852766 Z M359.297634,34.5218723 C353.420528,34.5218723 348.801634,36.8454809 345.443132,41.4937872 C342.082451,46.143183 340.400477,52.5508085 340.400477,60.7210213 C340.400477,68.8934128 342.082451,75.3043064 345.443132,79.950434 C348.801634,84.6009191 353.420528,86.9223489 359.297634,86.9223489 C365.17583,86.9223489 369.793634,84.5987404 373.154315,79.950434 C376.514996,75.3043064 378.195881,68.8934128 378.195881,60.7210213 C378.195881,52.5508085 376.514996,46.1420936 373.154315,41.4937872 C369.793634,36.8454809 365.17583,34.5218723 359.297634,34.5218723 Z M182.435404,34.6427915 C176.236936,34.6427915 171.275983,36.3933957 167.553634,39.8956936 C163.830196,43.3958128 161.687421,48.3273532 161.124221,54.6848681 L200.727966,54.6249532 C200.646264,48.5484936 198.94577,43.697566 195.626485,40.0765277 C192.305021,36.4533106 187.908357,34.6427915 182.435404,34.6427915 Z M482.446706,34.6427915 C476.249328,34.6427915 471.287285,36.3933957 467.566026,39.8956936 C463.842587,43.3958128 461.696545,48.3273532 461.135523,54.6848681 L500.739268,54.6249532 C500.656477,48.5484936 498.958162,43.697566 495.635609,40.0765277 C492.314145,36.4533106 487.916391,34.6427915 482.446706,34.6427915 Z" fill="#2C2255"></path>
        <g transform="translate(29.336511, 50.477753)">
            <path d="M72.6092255,6.6331234 C72.4305702,4.4315234 72.0601872,2.28439149 71.5067915,0.210246809 L1.23206809,0.210246809 C0.67867234,2.28330213 0.3072,4.43043404 0.128544681,6.6331234 L72.6092255,6.6331234 Z" fill="url(#linearGradient-1)"></path>
            <path d="M72.6092255,12.5984681 L0.129634043,12.5984681 C0.308289362,14.8000681 0.677582979,16.9472 1.23206809,19.0213447 L71.5078809,19.0213447 C72.0612766,16.9472 72.4305702,14.8000681 72.6092255,12.5984681 Z" fill="url(#linearGradient-2)"></path>
            <path d="M36.3694298,45.989583 C50.9636085,45.989583 63.5435574,37.3912511 69.336783,24.9856 L3.4020766,24.9856 C9.19530213,37.3912511 21.7752511,45.989583 36.3694298,45.989583 Z" fill="url(#linearGradient-3)"></path>
        </g>
        <path d="M118.241498,69.4980085 C117.883098,71.5285787 117.413583,73.5199319 116.831864,75.4633532 L116.831864,75.4633532 L14.4983149,75.4633532 C13.9155064,73.5188426 13.5091745,71.5274894 13.1518638,69.4980085 L13.1518638,69.4980085 Z M118.861345,57.1108766 C118.92017,58.1381447 118.958298,59.1697702 118.958298,60.2101106 C118.958298,61.172017 118.929974,62.1273872 118.879864,63.0762213 L118.879864,63.0762213 L12.4405106,63.0762213 C12.3904,62.1273872 12.3620766,61.172017 12.3620766,60.2101106 C12.3620766,59.1697702 12.4002043,58.1370553 12.4590298,57.1108766 L12.4590298,57.1108766 Z M116.483268,44.7237447 C117.074791,46.667166 117.548664,48.6596085 117.916868,50.6890894 L117.916868,50.6890894 L13.1529532,50.6890894 C13.5200681,48.6585191 13.902434,46.6660766 14.4950468,44.7237447 L14.4950468,44.7237447 Z" fill="#FFFFFF"></path>
    </g>
</svg>

<svg viewBox="0 0 512 121" xmlns="http://www.w3.org/2000/svg" xmlns:xlink="http://www.w3.org/1999/xlink"><defs><linearGradient id="a" x1="49.999%" x2="49.999%" y1="1089.4%" y2="-159.5%"><stop offset="30.33%" stop-color="#473788"/><stop offset="87.2%" stop-color="#2C2255"/></linearGradient><linearGradient id="b" x1="49.998%" x2="49.998%" y1="896.536%" y2="-352.36%" xlink:href="#a"/><linearGradient id="c" x1="49.998%" x2="49.998%" y1="215.169%" y2="-166.716%"><stop offset="30.33%" stop-color="#473788"/><stop offset="86.31%" stop-color="#2C2255"/></linearGradient></defs><g fill="#2C2255"><path d="M116.89 75.46c-2.44 8.28-6.95 15.71-13.56 22.27 -8.32 8.36-18.02 13.37-29.09 15.04 -2.77.41-5.62.63-8.56.63 -14.71 0-27.29-5.23-37.75-15.69 -6.57-6.57-11.05-13.99-13.46-22.28v0Zm2.05-12.39c-.1 1.87-.29 3.71-.56 5.52l-.15.89H13.12c-.3-1.8-.52-3.63-.64-5.49l-.06-.94h106.49Zm-.71-12.39c.3 1.79.51 3.62.64 5.48l.05.93H12.42c.09-1.88.28-3.72.55-5.53l.14-.91h105.1Z"/><path d="M116.9 44.72c-2.44-8.31-6.95-15.77-13.56-22.38C95.05 14.05 85.37 9.07 74.33 7.4c-2.8-.43-5.68-.65-8.65-.65 -14.71 0-27.29 5.19-37.75 15.58 -6.57 6.6-11.05 14.06-13.47 22.37"/></g><g fill="#F7941E"><path d="M9.29 60.09c0-28.14 21.12-51.51 48.61-55.62 -.69-.03-1.37-.06-2.06-.06C24.99 4.41-.02 29.33-.02 60.07c0 30.74 25 55.66 55.85 55.66 .69 0 1.37-.03 2.05-.06 -27.5-4.12-48.62-27.49-48.62-55.62Z"/><path d="M304.57 0h11.1v14.06h-11.11Z"/></g><path fill="#2C2255" d="M362.01 25.22c8.21 0 14.88 3.25 20.01 9.78 5.13 6.52 7.69 15.09 7.69 25.71 0 10.62-2.57 19.2-7.7 25.71 -5.13 6.51-11.81 9.78-20.02 9.78 -4.96 0-9.21-.98-12.77-2.93 -3.57-1.95-6.52-4.94-8.85-8.97v35.86H329.2V26.82h11.16v10.26c2.33-4.03 5.28-7.02 8.84-8.97 3.56-1.95 7.81-2.93 12.76-2.93Zm-179.71 0c9.09 0 16.29 2.92 21.58 8.78 5.29 5.85 7.94 13.81 7.94 23.87v5.43h-51.08c.48 7.65 2.78 13.47 6.91 17.47 4.12 4 9.87 6 17.23 6 4.26 0 8.4-.53 12.4-1.57 4-1.05 7.97-2.62 11.92-4.72v10.5c-3.99 1.69-8.07 2.97-12.26 3.86 -4.19.88-8.44 1.32-12.74 1.32 -10.79 0-19.33-3.14-25.63-9.42 -6.3-6.28-9.45-14.77-9.45-25.48 0-11.07 2.98-19.86 8.96-26.36 5.97-6.5 14.03-9.76 24.17-9.76Zm300.01 0c9.09 0 16.29 2.92 21.58 8.78 5.29 5.85 7.93 13.81 7.93 23.87v5.43h-51.08c.48 7.65 2.78 13.47 6.91 17.47 4.12 4 9.87 6 17.23 6 4.26 0 8.4-.53 12.4-1.57 4-1.05 7.97-2.62 11.92-4.72v10.5c-3.99 1.69-8.08 2.97-12.26 3.86 -4.19.88-8.44 1.32-12.74 1.32 -10.79 0-19.34-3.14-25.63-9.42 -6.31-6.28-9.46-14.77-9.46-25.48 0-11.07 2.98-19.86 8.96-26.36 5.97-6.51 14.03-9.76 24.17-9.76Zm-232.38-.01c3.42 0 6.76.35 10.02 1.05 3.26.7 6.41 1.76 9.47 3.17v10.38c-3.15-1.73-6.29-3.03-9.45-3.9 -3.17-.87-6.35-1.3-9.58-1.3 -7.21 0-12.8 2.28-16.79 6.85 -3.99 4.56-5.98 10.97-5.98 19.22 0 8.25 1.99 14.66 5.97 19.22 3.98 4.56 9.57 6.85 16.78 6.85 3.22 0 6.4-.44 9.57-1.3 3.15-.87 6.3-2.17 9.44-3.9v10.26c-3.11 1.44-6.32 2.53-9.63 3.25 -3.33.72-6.86 1.08-10.6 1.08 -10.19 0-18.28-3.21-24.27-9.6 -6-6.4-9-15.04-9-25.9 0-11.03 3.02-19.71 9.08-26.02 6.05-6.32 14.35-9.48 24.9-9.48Zm170.4-.01c4.1 0 7.96.3 11.59.9 3.62.6 6.96 1.51 10.02 2.72v10.5c-3.15-1.61-6.4-2.82-9.79-3.63 -3.39-.81-6.89-1.21-10.51-1.21 -5.52 0-9.65.84-12.41 2.53 -2.76 1.68-4.14 4.22-4.14 7.6 0 2.57.98 4.59 2.95 6.06 1.97 1.46 5.93 2.86 11.89 4.19l3.8.84c7.88 1.69 13.49 4.07 16.81 7.15 3.32 3.07 4.98 7.37 4.98 12.88 0 6.27-2.49 11.24-7.46 14.91 -4.97 3.66-11.81 5.49-20.5 5.49 -3.63 0-7.4-.36-11.33-1.06 -3.93-.71-8.06-1.77-12.41-3.18V80.41c4.1 2.13 8.15 3.73 12.13 4.8 3.98 1.06 7.92 1.59 11.83 1.59 5.23 0 9.25-.9 12.07-2.69 2.81-1.8 4.22-4.32 4.22-7.58 0-3.02-1.02-5.34-3.05-6.95 -2.04-1.61-6.5-3.16-13.38-4.65l-3.87-.91c-6.89-1.45-11.86-3.68-14.92-6.68 -3.06-3-4.59-7.12-4.59-12.35 0-6.36 2.25-11.27 6.76-14.73 4.5-3.47 10.9-5.2 19.19-5.2ZM290.58.5v93.93h-11.12V.49h11.11Zm25.07 26.32v67.61h-11.11V26.81h11.1Zm43.61 7.66c-5.88 0-10.5 2.32-13.86 6.97 -3.37 4.64-5.05 11.05-5.05 19.22 0 8.17 1.68 14.58 5.04 19.22 3.35 4.65 7.97 6.97 13.85 6.97 5.87 0 10.49-2.33 13.85-6.98 3.36-4.65 5.04-11.06 5.04-19.23 0-8.18-1.69-14.58-5.05-19.23 -3.37-4.65-7.98-6.98-13.86-6.98Zm-176.87.12c-6.2 0-11.16 1.75-14.89 5.25 -3.73 3.5-5.87 8.43-6.43 14.78l39.6-.06c-.09-6.08-1.79-10.93-5.11-14.55 -3.33-3.63-7.72-5.44-13.2-5.44Zm300.01 0c-6.2 0-11.16 1.75-14.89 5.25 -3.73 3.5-5.87 8.43-6.44 14.78l39.6-.06c-.09-6.08-1.79-10.93-5.11-14.55 -3.33-3.63-7.72-5.44-13.19-5.44Z"/><g transform="translate(29.3365 50.4778)"><path fill="url(#a)" d="M72.6 6.63c-.18-2.21-.55-4.35-1.11-6.43H1.21C.65 2.27.28 4.42.1 6.62h72.48Z"/><path fill="url(#b)" d="M72.6 12.59H.12c.17 2.2.54 4.34 1.1 6.42h70.27c.55-2.08.92-4.23 1.1-6.43Z"/><path fill="url(#c)" d="M36.36 45.98c14.59 0 27.17-8.6 32.96-21.01H3.38c5.79 12.4 18.37 21 32.96 21Z"/></g><path fill="#FFF" d="M118.24 69.49c-.36 2.03-.83 4.02-1.41 5.96v0H14.49c-.59-1.95-.99-3.94-1.35-5.97v0Zm.61-12.39c.05 1.02.09 2.05.09 3.09 0 .96-.03 1.91-.08 2.86v0H12.42c-.06-.95-.08-1.91-.08-2.87 0-1.05.03-2.08.09-3.1v0Zm-2.38-12.39c.59 1.94 1.06 3.93 1.43 5.96v0H13.13c.36-2.04.74-4.03 1.34-5.97v0Z"/></svg>
